!!!OTL: Herr und Schildknecht Watt fand sik an dem Wege stahn?
!!!ARE: Europa, Mitteleuropa, Deutschland (BRD), Westfalen, Soester Gegend
!!!YOR: 2, S. 14
!!    1856 aufgezeichnet
!!!SCT: Q0034
!!!YEM: Copyright 1995, estate of Helmut Schaffrath.
**kern
*ICvox
*Ivox
!! Mixed meters:  2/4; 3/4
*M2/4
*k[f#c#]
*D:
{8d
=1
8d
8a
8a
8a
=2
8b
8a
4g}
=3
{12a
12b
12cc#
=4
*M3/4
4dd
4a
8r}
{8d
=5
*M2/4
8d
8a
8a
8a
=6
8b
8a
4g}
=7
{12a
12b
12cc#
=8
*M3/4
4dd
4a
8r}
{16a
16a
=9
*M2/4
12dd
12dd
12dd
8ccn
8a
=10
8ccn
8ccn
4fn}
=11
{12g
12g
12g
12a
12a
12a
=12
8b-
8g
4a}
=13
{8g
8e
8fn
8d
=14
8e
8e
4d}
=15
{12a
12a
12a
=16
4dd
4a
8r}
==
!!!AGN: Ballade, Tod, Unfall, Herr und Knecht
!! Zweite und vierte Zeile und Schluss = Refrain.
!!!ONB: ESAC (Essen Associative Code) Database: BALLADE
!!!AMT: irregular
!!!AIN: vox
!!!EED: Helmut Schaffrath
!!!EEV: 1.0
*-
